src/images/themeAuto.svg

<svg xmlns="http://www.w3.org/2000/svg" viewBox="0 0 50 50">    <path d="M 25 2 C 12.318 2 2 12.317 2 25 C 2 37.683 12.318 48 25 48 C 26.456 48 27.876813 47.849891 29.257812 47.587891 C 28.761813 47.024891 28.315875 46.419344 27.921875 45.777344 C 26.967875 45.917344 25.994 46 25 46 L 25 4 C 36.58 4 46 13.421 46 25 C 46 25.992 45.902625 26.959063 45.765625 27.914062 C 46.413625 28.311062 47.024797 28.761719 47.591797 29.261719 C 47.851797 27.879719 48 26.457 48 25 C 48 12.317 37.682 2 25 2 z M 37 28 L 36.400391 31.199219 C 36.100391 31.299219 35.700391 31.399609 35.400391 31.599609 L 32.699219 29.699219 L 29.699219 32.699219 L 31.5 35.199219 C 31.4 35.599219 31.199609 35.900781 31.099609 36.300781 L 28 36.800781 L 28 41 L 31.099609 41.5 C 31.199609 41.8 31.3 42.2 31.5 42.5 L 29.699219 45.199219 L 32.699219 48.199219 L 35.400391 46.400391 C 35.800391 46.600391 36.1 46.700781 36.5 46.800781 L 37 50 L 41.099609 50 L 41.699219 46.900391 C 41.999219 46.800391 42.299219 46.7 42.699219 46.5 L 45.400391 48.300781 L 48.400391 45.300781 L 46.5 42.699219 C 46.7 42.299219 46.800391 41.899609 46.900391 41.599609 L 50 41 L 50 36.800781 L 46.800781 36.300781 C 46.700781 36.000781 46.600391 35.600781 46.400391 35.300781 L 48.199219 32.599609 L 45.300781 29.699219 L 42.699219 31.599609 C 42.399219 31.399609 41.999219 31.299219 41.699219 31.199219 L 41.199219 28 L 37 28 z M 38.699219 30 L 39.5 30 L 39.900391 32.699219 L 40.5 32.900391 C 41.1 33.100391 41.699219 33.299609 42.199219 33.599609 L 42.800781 34 L 45.099609 32.300781 L 45.599609 32.800781 L 44 35.099609 L 44.300781 35.599609 C 44.600781 36.199609 44.8 36.800391 45 37.400391 L 45.199219 38 L 48 38.400391 L 48 39.199219 L 45.300781 39.800781 L 45.099609 40.400391 C 44.899609 41.000391 44.700391 41.599609 44.400391 42.099609 L 44 42.699219 L 45.699219 45 L 45.099609 45.599609 L 42.800781 44 L 42.300781 44.300781 C 41.700781 44.600781 41.1 44.8 40.5 45 L 39.900391 45.199219 L 39.400391 48 L 38.599609 48 L 38.199219 45.300781 L 37.599609 45.099609 C 36.999609 44.899609 36.400391 44.700391 35.900391 44.400391 L 35.300781 44 L 32.900391 45.599609 L 32.300781 45 L 33.900391 42.699219 L 33.599609 42.199219 C 33.299609 41.599219 33.100391 40.900391 32.900391 40.400391 L 32.699219 39.800781 L 30 39.300781 L 30 38.5 L 32.800781 38 L 32.900391 37.300781 C 33.000391 36.800781 33.2 36.199219 33.5 35.699219 L 33.900391 35.199219 L 32.300781 32.900391 L 32.900391 32.300781 L 35.199219 33.900391 L 35.699219 33.699219 C 36.399219 33.399219 36.999609 33.100391 37.599609 32.900391 L 38.199219 32.800781 L 38.699219 30 z M 39 34.900391 C 36.8 34.900391 35 36.700391 35 38.900391 C 35 41.100391 36.8 42.900391 39 42.900391 C 41.2 42.900391 43 41.200391 43 38.900391 C 43 36.700391 41.2 34.900391 39 34.900391 z M 39 37 C 40.1 37 41 37.8 41 39 C 41 40.1 40.1 41 39 41 C 37.9 41 37 40.1 37 39 C 37 37.9 37.9 37 39 37 z"></path></svg>

<svg viewBox="0 0 50 50" xmlns="http://www.w3.org/2000/svg"><path d="M25 2C12.318 2 2 12.317 2 25s10.318 23 23 23c1.456 0 2.877-.15 4.258-.412a13.108 13.108 0 0 1-1.336-1.81c-.954.14-1.928.222-2.922.222V4c11.58 0 21 9.421 21 21 0 .992-.097 1.96-.234 2.914.648.397 1.259.848 1.826 1.348A23.02 23.02 0 0 0 48 25C48 12.317 37.682 2 25 2zm12 26-.6 3.2c-.3.1-.7.2-1 .4l-2.7-1.9-3 3 1.8 2.5c-.1.4-.3.7-.4 1.1l-3.1.5V41l3.1.5c.1.3.2.7.4 1l-1.8 2.7 3 3 2.7-1.8c.4.2.7.3 1.1.4L37 50h4.1l.6-3.1c.3-.1.6-.2 1-.4l2.7 1.8 3-3-1.9-2.6c.2-.4.3-.8.4-1.1L50 41v-4.2l-3.2-.5c-.1-.3-.2-.7-.4-1l1.8-2.7-2.9-2.9-2.6 1.9c-.3-.2-.7-.3-1-.4l-.5-3.2H37zm1.7 2h.8l.4 2.7.6.2c.6.2 1.2.4 1.7.7l.6.4 2.3-1.7.5.5-1.6 2.3.3.5c.3.6.5 1.2.7 1.8l.2.6 2.8.4v.8l-2.7.6-.2.6c-.2.6-.4 1.2-.7 1.7l-.4.6 1.7 2.3-.6.6-2.3-1.6-.5.3c-.6.3-1.2.5-1.8.7l-.6.2-.5 2.8h-.8l-.4-2.7-.6-.2c-.6-.2-1.2-.4-1.7-.7l-.6-.4-2.4 1.6-.6-.6 1.6-2.3-.3-.5c-.3-.6-.5-1.3-.7-1.8l-.2-.6-2.7-.5v-.8l2.8-.5.1-.7c.1-.5.3-1.1.6-1.6l.4-.5-1.6-2.3.6-.6 2.3 1.6.5-.2c.7-.3 1.3-.6 1.9-.8l.6-.1.5-2.8zm.3 4.9c-2.2 0-4 1.8-4 4s1.8 4 4 4 4-1.7 4-4c0-2.2-1.8-4-4-4zm0 2.1c1.1 0 2 .8 2 2 0 1.1-.9 2-2 2s-2-.9-2-2 .9-2 2-2z"/></svg>
